2024/static/img/youtube_white.svg

<svg width="28" height="28" viewBox="0 0 28 28" fill="none" xmlns="http://www.w3.org/2000/svg">
<path d="M26.2967 7.49001C26.1581 6.93632 25.8758 6.42901 25.4784 6.01931C25.081 5.60962 24.5826 5.31205 24.0333 5.15667C22.0267 4.66667 14 4.66667 14 4.66667C14 4.66667 5.97335 4.66667 3.96668 5.20334C3.41747 5.35872 2.91899 5.65629 2.52159 6.06598C2.12418 6.47567 1.84194 6.98298 1.70335 7.53667C1.3361 9.57315 1.15646 11.639 1.16668 13.7083C1.15359 15.7932 1.33324 17.8749 1.70335 19.9267C1.85614 20.4632 2.14471 20.9512 2.54118 21.3436C2.93766 21.736 3.42864 22.0195 3.96668 22.1667C5.97335 22.7033 14 22.7033 14 22.7033C14 22.7033 22.0267 22.7033 24.0333 22.1667C24.5826 22.0113 25.081 21.7137 25.4784 21.304C25.8758 20.8943 26.1581 20.387 26.2967 19.8333C26.6611 17.8122 26.8407 15.7621 26.8333 13.7083C26.8464 11.6235 26.6668 9.54182 26.2967 7.49001Z" stroke="white" stroke-width="2" stroke-linecap="round" stroke-linejoin="round"/>
<path d="M11.375 17.5233L18.0833 13.7083L11.375 9.89333V17.5233Z" stroke="white" stroke-width="2" stroke-linecap="round" stroke-linejoin="round"/>
</svg>

<svg xmlns="http://www.w3.org/2000/svg" width="28" height="28" fill="none" viewBox="0 0 28 28"><path stroke="#fff" stroke-linecap="round" stroke-linejoin="round" stroke-width="2" d="M26.3 7.49a3.2 3.2 0 0 0-2.27-2.33c-2-.5-10.03-.5-10.03-.5s-8.03 0-10.03.54A3.2 3.2 0 0 0 1.7 7.54q-.54 3.06-.53 6.17-.03 3.12.53 6.22a3.2 3.2 0 0 0 2.27 2.24c2 .53 10.03.53 10.03.53s8.03 0 10.03-.53a3.2 3.2 0 0 0 2.27-2.34q.54-3.04.53-6.12.03-3.14-.53-6.22"/><path stroke="#fff" stroke-linecap="round" stroke-linejoin="round" stroke-width="2" d="m11.38 17.52 6.7-3.81-6.7-3.82z"/></svg>
